X: 9
T: The Seven Step
R: barndance
M: 4/4
L: 1/8
K: Gmaj
M: 2/4
DG GG | F/G/A/F/ G2 | DB BB | A/B/c/A/ B2 ||
dd e2 | cc d2 | BB cc | AA B2 |
dd e2 | cc d2 | BB cc | AA G2 |]


Tune 1307	Setting 26974

